X: 1972
T: Wehla Waltz
B: australian traditional tunes wiki
M:3/4
L:1/8
R: Waltz
Q: 1/4=100
K:D
V:1 
|:"D"A4B2|A2d2f2|A4B2|A2d2f2|"A7"f4e2|f4e2|1f4c2|"G"e2d2B2:|2"D"d3dd2|d4a2||
|:"D"b3afd|A4 dA|"G"B6-|B4 ef|"A7"g3 ecB|1A4g2|"D"f6-|f4 a2:|2A4A2|"D"d6-|d4A2||
||"D"D3 EFA|d4 A2|"G"B6-|B4 ef|"A7"g3 ecB|A4 g2|"D"f6-|f4 a2|
b3 afd|A4 fd|"G"B6-|B4 ef|"A7"g3 ecB|A4 A2|"D"d6-|d4z2||
% abcbook-tune_id 6342d5be55447cbdf66807b1


% abcbook-boost 0
% abcbook-tablature 
% abcbook-transpose 
% abcbook-lastupdated 1665324491594
% abcbook-soundfonts 
% abcbook-repeats 1
% NFF Book 2010

